X: 1
T: The Banks Of Lough Gowna
R: jig
M: 6/8
L: 1/8
K: Bmin
BcB BAF|FEF DFA|BcB BAF|
d2e fed|BcB BAF|FEF DFA|
def geg|1 fdB Bdc:|2 fdB ~B3||
|:def ~a3|afb afe|dFA def|
geg fdB|def ~a3|afb afe|
def geg|1 fdB ~B3:|2 fdB Bdc||


Tune 775	Setting 13903

